picto/car-hire-right-de-framed.svg

<svg class="color-immutable" width="30" height="30" viewBox="0 0 30 30" fill="none" xmlns="http://www.w3.org/2000/svg"><path d="M0 30V0H30V30H0Z" fill="#2D327D"/><path d="M25.5 3C26.325 3 27 3.675 27 4.5V25.5C27 26.325 26.325 27 25.5 27H4.5C3.675 27 3 26.325 3 25.5V4.5C3 3.675 3.675 3 4.5 3H25.5ZM25.5 2.625H4.5C3.46613 2.625 2.625 3.46613 2.625 4.5V25.5C2.625 26.5339 3.46613 27.375 4.5 27.375H25.5C26.5339 27.375 27.375 26.5339 27.375 25.5V4.5C27.375 3.46613 26.5339 2.625 25.5 2.625Z" fill="white"/><path d="M23.6554 19.7141L19.2688 19.3502L16.6547 16.736C16.4438 16.5252 16.1579 16.4063 15.8597 16.4063H9.37582C9.0777 16.4063 8.79142 16.5252 8.5806 16.736L6.3297 18.9863C6.11993 19.197 6 19.4839 6 19.781V22.425C6 22.632 6.16897 22.8 6.3762 22.8H6.7506V22.3693C6.7506 21.1272 7.7595 20.1188 9.00045 20.1188C10.2424 20.1188 11.2503 21.1271 11.2503 22.3693V22.8H18.7124V22.3693C18.7124 21.1272 19.7204 20.1188 20.9623 20.1188C22.2045 20.1188 23.2113 21.1271 23.2113 22.3693V22.8H23.6237C23.8319 22.8 24.0002 22.632 24.0002 22.425V20.0873C24 19.8923 23.8504 19.73 23.6554 19.7141ZM12.3733 19.0318C12.3733 19.2389 12.2051 19.4059 11.9983 19.4059H7.51425C7.38968 19.4059 7.28925 19.3057 7.28925 19.1813C7.28925 19.1219 7.31355 19.0643 7.35435 19.0225L9.1482 17.2289C9.2187 17.1584 9.31432 17.1185 9.41377 17.1185H11.9982C12.205 17.1185 12.3733 17.2874 12.3733 17.4945V19.0318H12.3733ZM17.7212 19.4059H13.4621C13.2548 19.4059 13.0877 19.2389 13.0877 19.0328L13.0849 17.4953C13.0849 17.4945 13.0849 17.4945 13.0849 17.4945C13.0849 17.2874 13.253 17.1185 13.4603 17.1185H15.8215C15.921 17.1185 16.0165 17.1584 16.0873 17.2289L17.8809 19.0225C17.922 19.0643 17.947 19.1219 17.947 19.1813C17.947 19.3056 17.8457 19.4059 17.7212 19.4059Z" fill="white"/><path fill-rule="evenodd" clip-rule="evenodd" d="M9.0046 23.2222C8.48732 23.2222 8.06725 22.8024 8.06725 22.2844C8.06725 21.7662 8.4874 21.3466 9.0046 21.3466C9.52217 21.3466 9.94202 21.7663 9.94202 22.2844C9.94202 22.8024 9.5221 23.2222 9.0046 23.2222ZM9.0046 20.5778C8.06252 20.5778 7.29797 21.342 7.29797 22.2843C7.29797 23.2258 8.06252 23.9909 9.0046 23.9909C9.94562 23.9909 10.7112 23.2258 10.7112 22.2843C10.7111 21.342 9.94562 20.5778 9.0046 20.5778Z" fill="white"/><path fill-rule="evenodd" clip-rule="evenodd" d="M20.9657 23.2222C20.4474 23.2222 20.0275 22.8024 20.0275 22.2844C20.0275 21.7662 20.4474 21.3466 20.9657 21.3466C21.4833 21.3466 21.9021 21.7663 21.9021 22.2844C21.9021 22.8024 21.4833 23.2222 20.9657 23.2222ZM20.9648 20.5778C20.0227 20.5778 19.2582 21.342 19.2582 22.2843C19.2582 23.2258 20.0227 23.9909 20.9648 23.9909C21.9068 23.9909 22.6714 23.2258 22.6714 22.2843C22.6714 21.342 21.9069 20.5778 20.9648 20.5778Z" fill="white"/><path d="M8.01333 6L7.2658 8.24865H6.7075L5.9707 6H6.48445L6.99048 7.6842L7.50423 6H8.01333Z" fill="white"/><path d="M9.57601 7.72575C9.55246 7.8201 9.50985 7.90875 9.44835 7.99185C9.30068 8.19383 9.08843 8.29485 8.81161 8.29485C8.56141 8.29485 8.36093 8.21588 8.21018 8.058C8.13638 7.98113 8.07998 7.88828 8.04098 7.7796C7.9989 7.66373 7.97791 7.54275 7.97791 7.4166C7.97791 7.17255 8.04818 6.9675 8.18866 6.80138C8.34556 6.61575 8.54858 6.52298 8.79773 6.52298C8.99873 6.52298 9.16996 6.585 9.31148 6.70905C9.41303 6.79823 9.48683 6.90825 9.53296 7.03898C9.57908 7.1697 9.60218 7.33403 9.60218 7.53196H8.43173C8.43586 7.614 8.44868 7.68218 8.4702 7.73655C8.53073 7.88318 8.64556 7.95653 8.81476 7.95653C8.89778 7.95653 8.96551 7.9383 9.01778 7.90193C9.07006 7.86555 9.11311 7.80683 9.14701 7.72583H9.57601V7.72575ZM9.14686 7.23203C9.13868 7.15103 9.12023 7.08383 9.09151 7.0305C9.06278 6.97823 9.02206 6.93668 8.96926 6.90593C8.91646 6.87518 8.85878 6.8598 8.79623 6.8598C8.69678 6.8598 8.61473 6.8931 8.55016 6.95978C8.48558 7.02645 8.4471 7.1172 8.4348 7.23203H9.14686Z" fill="white"/><path d="M10.9157 6.54143V6.97366C10.8439 6.96031 10.786 6.95363 10.7419 6.95363C10.5758 6.95363 10.4537 7.02338 10.3758 7.16281C10.3317 7.24073 10.3097 7.37093 10.3097 7.55348V8.24873H9.86365V6.56911H10.2881V6.87518C10.4091 6.64756 10.585 6.53371 10.8157 6.53371C10.8444 6.53371 10.8777 6.53626 10.9157 6.54143Z" fill="white"/><path d="M11.5524 6.57368V6.79673C11.6088 6.71985 11.6647 6.66293 11.72 6.62603C11.8195 6.55733 11.9364 6.52298 12.0707 6.52298C12.2881 6.52298 12.4404 6.61523 12.5275 6.7998C12.6588 6.61523 12.8372 6.52298 13.0628 6.52298C13.2371 6.52298 13.3725 6.57503 13.4689 6.67913C13.5652 6.78323 13.6135 6.93008 13.6135 7.11975V8.24873H13.1674V7.25048C13.1674 7.14278 13.1557 7.06748 13.132 7.02435C13.09 6.94538 13.0141 6.90593 12.9044 6.90593C12.7711 6.90593 12.6783 6.96233 12.626 7.07513C12.6025 7.12538 12.5906 7.21508 12.5906 7.34431V8.24873H12.1461V7.23203C12.1461 7.13258 12.1343 7.0608 12.1107 7.0167C12.0727 6.9429 12.002 6.90593 11.8984 6.90593C11.8348 6.90593 11.7777 6.92183 11.7269 6.95363C11.6761 6.98543 11.638 7.029 11.6123 7.08435C11.5867 7.1397 11.5738 7.22641 11.5738 7.34431V8.24873H11.1278V6.57368H11.5524Z" fill="white"/><path d="M14.4256 6V6.40147H13.9796V6H14.4256ZM14.4256 6.57217V8.24873H13.9796V6.57217H14.4256Z" fill="white"/><path d="M16.2974 7.72575C16.2739 7.8201 16.2313 7.90875 16.1698 7.99185C16.0221 8.19383 15.8099 8.29485 15.533 8.29485C15.2828 8.29485 15.0824 8.21588 14.9316 8.058C14.8578 7.98113 14.8014 7.88828 14.7624 7.7796C14.7204 7.66373 14.6993 7.54275 14.6993 7.4166C14.6993 7.17255 14.7695 6.9675 14.9101 6.80138C15.067 6.61575 15.27 6.52298 15.5192 6.52298C15.7202 6.52298 15.8914 6.585 16.0329 6.70905C16.1345 6.79823 16.2083 6.90825 16.2544 7.03898C16.3005 7.1697 16.3236 7.33403 16.3236 7.53196H15.1532C15.1573 7.614 15.1701 7.68218 15.1916 7.73655C15.2522 7.88318 15.367 7.95653 15.5362 7.95653C15.6192 7.95653 15.6869 7.9383 15.7392 7.90193C15.7915 7.86555 15.8345 7.80683 15.8684 7.72583H16.2974V7.72575ZM15.8683 7.23203C15.8601 7.15103 15.8417 7.08383 15.8129 7.0305C15.7842 6.97823 15.7435 6.93668 15.6907 6.90593C15.6379 6.87518 15.5802 6.8598 15.5177 6.8598C15.4182 6.8598 15.3362 6.8931 15.2716 6.95978C15.207 7.02645 15.1685 7.1172 15.1562 7.23203H15.8683Z" fill="white"/><path d="M17.4649 6.56602V6.88132H17.1311V7.6704C17.1311 7.76475 17.1398 7.82475 17.1573 7.85032C17.183 7.88722 17.2403 7.90567 17.3296 7.90567C17.3645 7.90567 17.4095 7.90312 17.465 7.89795V8.2548C17.3645 8.26605 17.2722 8.27167 17.1881 8.27167C17.061 8.27167 16.9641 8.25735 16.8974 8.22862C16.7939 8.1825 16.7293 8.09842 16.7036 7.9764C16.6924 7.92412 16.6867 7.8159 16.6867 7.65187V6.88132H16.4144V6.56602H16.6867V6.17227H17.1312V6.56602H17.4649Z" fill="white"/><path d="M19.2152 6.56911V8.24873H18.7907V8.00416C18.6625 8.19796 18.483 8.29486 18.2523 8.29486C18.0513 8.29486 17.8996 8.22766 17.7971 8.09333C17.7581 8.04106 17.7302 7.97948 17.7132 7.90876C17.6963 7.83803 17.6879 7.74571 17.6879 7.63193V6.56911H18.1339V7.49348C18.1339 7.58986 18.1367 7.65803 18.1424 7.69808C18.148 7.73806 18.1595 7.77188 18.177 7.79963C18.2242 7.87448 18.3047 7.91191 18.4185 7.91191C18.559 7.91191 18.661 7.84988 18.7246 7.72583C18.7553 7.66531 18.7707 7.55611 18.7707 7.39823V6.56911H19.2152Z" fill="white"/><path d="M19.9812 6.57367V6.80902C20.0334 6.73724 20.0822 6.68444 20.1273 6.65062C20.238 6.56452 20.3713 6.52139 20.5272 6.52139C20.6646 6.52139 20.781 6.55627 20.8763 6.62602C20.9522 6.68137 21.0052 6.75134 21.0354 6.83594C21.0657 6.92054 21.0808 7.03972 21.0808 7.19354V8.24864H20.6363V7.28737C20.6363 7.17974 20.6271 7.10077 20.6086 7.05052C20.5912 7.00642 20.5614 6.97154 20.5194 6.94589C20.4712 6.91822 20.4163 6.90434 20.3548 6.90434C20.2872 6.90434 20.2256 6.92077 20.1702 6.95354C20.1149 6.98639 20.0739 7.03094 20.0472 7.08734C20.0174 7.15094 20.0025 7.24987 20.0025 7.38419V8.24857H19.5565V6.57367H19.9812Z" fill="white"/><path d="M22.9974 6.5691V8.04877C22.9974 8.18002 22.9892 8.28487 22.9728 8.36332C22.9564 8.44177 22.9282 8.51325 22.8882 8.5779C22.759 8.78295 22.5273 8.88555 22.193 8.88555C21.7274 8.88555 21.4727 8.70967 21.4286 8.358H21.8777C21.9084 8.49847 22.0166 8.56867 22.2022 8.56867C22.3437 8.56867 22.4426 8.5287 22.499 8.44867C22.5431 8.38507 22.5652 8.28255 22.5652 8.14102L22.5667 7.93335C22.4519 8.10975 22.2857 8.19787 22.0683 8.19787C21.8581 8.19787 21.6905 8.12407 21.5654 7.9764C21.4382 7.8267 21.3746 7.62472 21.3746 7.3704C21.3746 7.11607 21.4382 6.91207 21.5654 6.75825C21.6977 6.59932 21.8714 6.51982 22.0868 6.51982C22.1985 6.51982 22.2918 6.54082 22.3667 6.5829C22.4415 6.6249 22.5102 6.69517 22.5728 6.79357V6.56902H22.9974V6.5691ZM22.1868 6.88597C22.0617 6.88597 21.9668 6.93825 21.9023 7.04287C21.85 7.12695 21.8238 7.2336 21.8238 7.36282C21.8238 7.52692 21.8618 7.6515 21.9377 7.73655C22.0033 7.81245 22.0889 7.8504 22.1945 7.8504C22.3278 7.8504 22.4278 7.79452 22.4945 7.68277C22.5458 7.59667 22.5713 7.48792 22.5713 7.35667C22.5713 7.1988 22.5319 7.07677 22.4529 6.9906C22.3883 6.92077 22.2996 6.88597 22.1868 6.88597Z" fill="white"/></svg>

<svg class="color-immutable" width="30" height="30" viewBox="0 0 30 30" fill="none" xmlns="http://www.w3.org/2000/svg"><g clip-path="url(#a)"><path d="M0 30V0h30v30H0Z" fill="#2D327D"/><path d="M25.5 3c.825 0 1.5.675 1.5 1.5v21c0 .825-.675 1.5-1.5 1.5h-21c-.825 0-1.5-.675-1.5-1.5v-21C3 3.675 3.675 3 4.5 3h21Zm0-.375h-21A1.877 1.877 0 0 0 2.625 4.5v21c0 1.034.841 1.875 1.875 1.875h21a1.877 1.877 0 0 0 1.875-1.875v-21A1.877 1.877 0 0 0 25.5 2.625Z" fill="#fff"/><path d="m23.655 19.714-4.386-.364-2.614-2.614c-.211-.21-.497-.33-.795-.33H9.376c-.298 0-.585.12-.795.33l-2.251 2.25c-.21.211-.33.498-.33.795v2.644c0 .207.169.375.376.375h.375v-.43a2.251 2.251 0 0 1 4.5 0v.43h7.461v-.43a2.25 2.25 0 1 1 4.499 0v.43h.413a.376.376 0 0 0 .376-.375v-2.338a.375.375 0 0 0-.345-.373Zm-11.282-.682a.374.374 0 0 1-.375.374H7.514a.224.224 0 0 1-.16-.383l1.794-1.794c.07-.07.166-.11.266-.11h2.584c.207 0 .375.168.375.375v1.538Zm5.348.374h-4.259a.373.373 0 0 1-.374-.373l-.003-1.538c0-.208.168-.377.375-.377h2.361c.1 0 .196.04.266.11l1.794 1.794a.225.225 0 0 1-.16.383Z" fill="#fff"/><path fill-rule="evenodd" clip-rule="evenodd" d="M9.005 23.222a.938.938 0 1 1 0-1.875.938.938 0 0 1 0 1.875Zm0-2.644a1.707 1.707 0 1 0 0 3.414 1.707 1.707 0 0 0 0-3.414ZM20.966 23.222a.938.938 0 1 1-.001-1.876.938.938 0 0 1 0 1.876Zm-.001-2.644a1.707 1.707 0 1 0 0 3.414 1.707 1.707 0 0 0 0-3.414Z" fill="#fff"/><path d="m8.013 6-.747 2.249h-.559L5.971 6h.513l.506 1.684L7.504 6h.51ZM9.576 7.726a.75.75 0 0 1-.128.266c-.147.202-.36.303-.636.303-.25 0-.451-.08-.602-.237a.773.773 0 0 1-.169-.278 1.055 1.055 0 0 1-.063-.363c0-.244.07-.45.21-.616a.76.76 0 0 1 .61-.278c.2 0 .372.062.513.186.102.09.176.2.222.33.046.13.07.295.07.493H8.431a.65.65 0 0 0 .038.205c.06.146.176.22.345.22.083 0 .15-.019.203-.055a.39.39 0 0 0 .129-.176h.429Zm-.43-.494a.539.539 0 0 0-.054-.202.338.338 0 0 0-.295-.17c-.1 0-.182.033-.247.1a.446.446 0 0 0-.115.272h.712ZM10.916 6.541v.433a.997.997 0 0 0-.174-.02.39.39 0 0 0-.366.209c-.044.078-.066.208-.066.39v.696h-.446v-1.68h.424v.306c.121-.227.297-.341.528-.341.028 0 .062.002.1.007ZM11.552 6.574v.223a.602.602 0 0 1 .518-.274c.218 0 .37.092.457.277a.623.623 0 0 1 .536-.277c.174 0 .31.052.406.156.096.104.145.251.145.44v1.13h-.447V7.25a.51.51 0 0 0-.035-.226c-.042-.079-.118-.118-.228-.118-.133 0-.226.056-.278.17a.707.707 0 0 0-.035.268v.905h-.445V7.232c0-.1-.012-.171-.035-.215-.038-.074-.109-.111-.213-.111a.316.316 0 0 0-.171.048.3.3 0 0 0-.115.13.656.656 0 0 0-.038.26v.905h-.446V6.574h.424ZM14.426 6v.401h-.446V6h.446Zm0 .572V8.25h-.446V6.572h.446ZM16.297 7.726a.75.75 0 0 1-.127.266c-.148.202-.36.303-.637.303-.25 0-.45-.08-.601-.237a.773.773 0 0 1-.17-.278 1.057 1.057 0 0 1-.063-.363c0-.244.07-.45.211-.616a.76.76 0 0 1 .61-.278c.2 0 .371.062.513.186.101.09.175.2.221.33.046.13.07.295.07.493h-1.17a.65.65 0 0 0 .038.205c.06.146.175.22.344.22.083 0 .15-.019.203-.055a.39.39 0 0 0 .13-.176h.428Zm-.429-.494a.537.537 0 0 0-.055-.202.338.338 0 0 0-.295-.17c-.1 0-.182.033-.246.1a.446.446 0 0 0-.116.272h.712ZM17.465 6.566v.315h-.334v.79c0 .094.009.154.026.18.026.036.083.055.173.055.035 0 .08-.003.135-.008v.357c-.1.011-.193.017-.277.017a.764.764 0 0 1-.29-.043.332.332 0 0 1-.194-.253 1.939 1.939 0 0 1-.017-.324v-.77h-.273v-.316h.273v-.394h.444v.394h.334ZM19.215 6.57v1.679h-.424v-.245a.61.61 0 0 1-.539.29c-.2 0-.352-.066-.455-.2a.5.5 0 0 1-.084-.185 1.23 1.23 0 0 1-.025-.277V6.569h.446v.924c0 .097.003.165.008.205.006.04.018.074.035.102.047.074.128.112.242.112a.32.32 0 0 0 .306-.186c.03-.06.046-.17.046-.328V6.57h.444ZM19.981 6.574v.235a.632.632 0 0 1 .546-.288c.138 0 .254.035.35.105a.438.438 0 0 1 .158.21c.03.085.046.204.046.358v1.055h-.445v-.962a.74.74 0 0 0-.027-.236.211.211 0 0 0-.09-.105.356.356 0 0 0-.35.008.305.305 0 0 0-.122.133.739.739 0 0 0-.044.297v.865h-.447V6.574h.425ZM22.997 6.57v1.479c0 .131-.008.236-.024.314a.661.661 0 0 1-.085.215c-.129.205-.36.308-.695.308-.466 0-.72-.176-.764-.528h.449c.03.14.139.21.324.21.142 0 .24-.04.297-.12.044-.063.066-.165.066-.307l.002-.208a.559.559 0 0 1-.499.265.625.625 0 0 1-.503-.222c-.127-.15-.19-.351-.19-.606 0-.254.063-.458.19-.612a.645.645 0 0 1 .522-.238c.111 0 .205.02.28.063a.606.606 0 0 1 .206.21V6.57h.424Zm-.81.316a.314.314 0 0 0-.285.157.596.596 0 0 0-.078.32c0 .164.038.288.114.374a.323.323 0 0 0 .257.113.327.327 0 0 0 .3-.167.629.629 0 0 0 .076-.326c0-.158-.04-.28-.118-.366a.345.345 0 0 0-.266-.105Z" fill="#fff"/></g><defs><clipPath id="a"><path fill="#fff" d="M0 0h30v30H0z"/></clipPath></defs></svg>
